!!!COM: Gilles Binchois
!!!COM: Josquin des Prez
!!!CDT: ~1450-1521/08/27
!!!OTL: Je ne vis onques la pareille
!!!AGN: Chanson
!!!SCT: Bin3032
!!!SCA: Bin3032
!!!ONB: also Duf3086. Attribution levels are 2 (Binchois) and 4 (Du Fay)
!!!voices: 3
**kern	**text	**text	**text	**kern	**text	**text	**text	**kern	**text	**text	**text
*part3	*part3	*part3	*part3	*part2	*part2	*part2	*part2	*part1	*part1	*part1	*part1
*staff3	*staff3	*staff3	*staff3	*staff2	*staff2	*staff2	*staff2	*staff1	*staff1	*staff1	*staff1
*Ivox	*	*	*	*Ivox	*	*	*	*Ivox	*	*	*
*I"Contratenor	*	*	*	*I"Tenor	*	*	*	*I"Discantus	*	*	*
*I'Ct	*	*	*	*I'T	*	*	*	*I'D	*	*	*
*clefF4	*	*	*	*clefGv2	*	*	*	*clefG2	*	*	*
*k[b-]	*	*	*	*k[b-]	*	*	*	*k[b-]	*	*	*
*F:	*	*	*	*F:	*	*	*	*F:	*	*	*
*M3/1	*	*	*	*M3/1	*	*	*	*M3/1	*	*	*
*met(O)	*	*	*	*met(O)	*	*	*	*met(O)	*	*	*
=1	=1	=1	=1	=1	=1	=1	=1	=1	=1	=1	=1
!!LO:TX:a:t=Rondeau
0D	1.4.7. Je	3. En	5. Vos-	0d	1.4.7. Je	3. En	5. Vos-	1.d	1.4.7. Je	3. En	5. Vos-
.	.	.	.	.	.	.	.	2e	.	.	.
1D	ne	vous	-tre	1d	ne	vous	-tre	1f	ne	vous	-tre
=2	=2	=2	=2	=2	=2	=2	=2	=2	=2	=2	=2
1C	vis	voi-	tres	1e-X	vis	voi-	tres	1g	vis	voi-	tres
0G	on-	-ant	grant	0d	on-	-ant	grant	1.b-	on-	-ant	grant
.	.	.	.	.	.	.	.	2a	.	.	.
=3	=3	=3	=3	=3	=3	=3	=3	=3	=3	=3	=3
1A	-ques	je	doul-	1c	-ques	je	doul-	1a	-ques	je	doul-
1D	.	.	-ceur	2d	la	m'es-	-ceur	1f	la	m'es-	-ceur
.	.	.	.	2A	.	.	.	.	.	.	.
1r	.	.	.	1B-	pa-	-mer-	res-	1g	pa-	-mer-	res-
=4	=4	=4	=4	=4	=4	=4	=4	=4	=4	=4	=4
2D	la	m'es-	res-	0A	-reil-	-veil-	-veil-	2.a	-reil-	-veil-	-veil-
2.F	pa-	-mer-	-veil-	.	.	.	.	.	.	.	.
.	.	.	.	.	.	.	.	4b-	.	.	.
.	.	.	.	.	.	.	.	2cc	.	.	.
4E	.	.	.	.	.	.	.	.	.	.	.
2F	.	.	.	.	.	.	.	2cc	.	.	.
2G	-reil-	-veil-	.	2d	.	.	.	2b-	.	.	.
2A	.	.	.	2c	.	.	.	4a	.	.	.
.	.	.	.	.	.	.	.	4g	.	.	.
=5	=5	=5	=5	=5	=5	=5	=5	=5	=5	=5	=5
0D	-le	-le	-le	2.d	-le	-le	-le	1f	-le	-le	-le
.	.	.	.	4c	.	.	.	.	.	.	.
.	.	.	.	1A	De	Et	Mon	1r	.	.	.
1G	De	Et	Mon	1B-	.	.	.	1g	De	Et	Mon
=6	=6	=6	=6	=6	=6	=6	=6	=6	=6	=6	=6
2F	vous	dis:	es-	1c	vous	dis:	es-	1a	vous	dis:	es-
2E	.	.	.	.	.	.	.	.	.	.	.
1D	ma	qu'est	-prit,	0d	ma	qu'est	-prit,	1f	.	.	.
1G	.	.	.	.	.	.	.	1b-	ma	qu'est	-prit,
=7	=7	=7	=7	=7	=7	=7	=7	=7	=7	=7	=7
1r	.	.	.	1G	gra-	ce-	et	1b-	gra-	ce-	et
1D	gra-	ce-	et	1F	.	.	.	1.a	-ci-	-ci	mon
2C	-ci-	-ci	mon	1G	-ci-	-ci	mon	.	.	.	.
2BB-	.	.	.	.	.	.	.	2g	.	.	.
=8	=8	=8	=8	=8	=8	=8	=8	=8	=8	=8	=8
1GG	-eu-	nos-	.	1B-	-eu-	nos-	oeil	1.g	-eu-	nos-	oeil
0D	.	.	oeil	0A	.	.	.	.	.	.	.
.	.	.	.	.	.	.	.	2f#Xi	.	.	.
.	.	.	.	.	.	.	.	2f#Xi	.	.	.
.	.	.	.	.	.	.	.	2e	.	.	.
=9	=9	=9	=9	=9	=9	=9	=9	=9	=9	=9	=9
1GG	-se	-tre	.	0.G	-se	-tre	en-	1g	-se	-tre	en-
2r	.	.	.	.	.	.	.	2d	da-	da-	-ta-
2C	da-	da-	en-	.	.	.	.	2e-Xi	.	.	.
2BB-	.	.	-ta-	.	.	.	.	2d	.	.	.
[2GG	.	.	.	.	.	.	.	[2B-	.	.	.
=10	=10	=10	=10	=10	=10	=10	=10	=10	=10	=10	=10
2GG]	.	.	.	2G	da-	da-	-ta-	4B-]	.	.	.
.	.	.	.	.	.	.	.	4c	.	.	.
2GG	.	.	.	2D	.	.	.	2d	.	.	.
2BB-	.	.	.	2G	.	.	.	4e-Xi	.	.	.
.	.	.	.	.	.	.	.	4d	.	.	.
2C	.	.	.	2A	.	.	.	4c	.	.	.
.	.	.	.	.	.	.	.	4B-	.	.	.
1D	.	.	.	1F	.	.	.	2.A	.	.	.
.	.	.	.	.	.	.	.	4G	.	.	.
=11	=11	=11	=11	=11	=11	=11	=11	=11	=11	=11	=11
1GG	.	.	.	2.B-	.	.	.	2G	.	.	.
.	.	.	.	.	.	.	.	2d	.	.	.
.	.	.	.	4A	.	.	.	.	.	.	.
2C	.	.	.	2G	.	.	.	2e	.	.	.
2D	.	.	.	2F	.	.	.	1d	.	.	.
1AA	.	.	.	1E	.	.	.	.	.	.	.
.	.	.	.	.	.	.	.	2c#Xi	.	.	.
=12	=12	=12	=12	=12	=12	=12	=12	=12	=12	=12	=12
!LO:TX:a:t=[s.c.]	!	!	!	!LO:TX:a:t=[s.c.]	!	!	!	!LO:TX:a:t=s.c.	!	!	!
1A	-me;	-me?	-me	0D	-me;	-me?	-me	0d	-me;	-me?	-me
1r	.	.	.	.	.	.	.	.	.	.	.
1A	2.8.Car	6. Mon	.	1r	.	.	.	1r	.	.	.
=13	=13	=13	=13	=13	=13	=13	=13	=13	=13	=13	=13
1.B-	.	.	.	1.d	2.8.Car	6. Mon	.	1.G	2.8.Car	6. Mon	.
2A	.	.	.	2c	.	.	.	2A	.	.	.
2G	.	.	.	1d	.	.	.	1B-	.	.	.
2F	.	.	.	.	.	.	.	.	.	.	.
=14	=14	=14	=14	=14	=14	=14	=14	=14	=14	=14	=14
1E	vo	cuer,	.	1e	vo	cuer,	.	1c	vo	cuer,	.
0D	beaul-	dont	.	1.f	beaul-	dont	.	2d	beaul-	dont	.
.	.	.	.	.	.	.	.	2c	.	.	.
.	.	.	.	.	.	.	.	2.A	.	.	.
.	.	.	.	2e	.	.	.	.	.	.	.
.	.	.	.	.	.	.	.	4G	.	.	.
=15	=15	=15	=15	=15	=15	=15	=15	=15	=15	=15	=15
1GG	-te?	puis	.	2.g	-te?	puis	.	0G	-te?	puis	.
.	.	.	.	4f	.	.	.	.	.	.	.
2r	.	.	.	2e	.	.	.	.	.	.	.
1G	est,	di-	.	1d	est,	di-	.	.	.	.	.
.	.	.	.	.	.	.	.	1d	est,	di-	.
2G	par	-re	.	2B-	.	.	.	.	.	.	.
=16	=16	=16	=16	=16	=16	=16	=16	=16	=16	=16	=16
1E	.	.	.	1c	par	-re	.	1e	par	-re	.
2.D	.	.	.	2.d	.	.	.	2.f	.	.	.
4E	.	.	.	4c	.	.	.	4e	.	.	.
1F	mon	sans	.	1A	mon	sans	.	1c	mon	sans	.
=17	=17	=17	=17	=17	=17	=17	=17	=17	=17	=17	=17
1B-	a-	bla-	.	1G	a-	bla-	.	2d	a-	bla-	.
.	.	.	.	.	.	.	.	2e	.	.	.
2A	.	.	.	2A	.	.	.	2f	.	.	.
1G	.	.	.	2B-	.	.	.	2.g	.	.	.
.	.	.	.	1G	.	.	.	.	.	.	.
.	.	.	.	.	.	.	.	4f	.	.	.
2GG	.	.	.	.	.	.	.	4e	.	.	.
.	.	.	.	.	.	.	.	4d	.	.	.
=18	=18	=18	=18	=18	=18	=18	=18	=18	=18	=18	=18
2D	.	.	.	2F	.	.	.	2.d	.	.	.
1GG	.	.	.	2G	.	.	.	.	.	.	.
.	.	.	.	.	.	.	.	4e-Xi	.	.	.
.	.	.	.	1D	.	.	.	4d	.	.	.
.	.	.	.	.	.	.	.	8cL	.	.	.
.	.	.	.	.	.	.	.	8B-J	.	.	.
2FF	.	.	.	.	.	.	.	2A	.	.	.
1GG	.	.	.	1G	.	.	.	2.B-	.	.	.
.	.	.	.	.	.	.	.	4A	.	.	.
=19	=19	=19	=19	=19	=19	=19	=19	=19	=19	=19	=19
[0.D	-me,	-me	.	0.F#Xi	-me,	-me	.	1A	-me,	-me	.
.	.	.	.	.	.	.	.	1r	.	.	.
.	.	.	.	.	.	.	.	1r	.	.	.
=20	=20	=20	=20	=20	=20	=20	=20	=20	=20	=20	=20
1D]	.	.	.	1.A	Sur	Puis-	.	1.f	Sur	Puis-	.
1r	.	.	.	.	.	.	.	.	.	.	.
.	.	.	.	2B-	.	.	.	2g	.	.	.
1A	Sur	Puis-	.	1c	.	.	.	1a	.	.	.
=21	=21	=21	=21	=21	=21	=21	=21	=21	=21	=21	=21
2G	tou-	-qu'a	.	1d	tou-	-qu'a	.	1.b-	tou-	-qu'a	.
1G	-tes	vous	.	.	.	.	.	.	.	.	.
.	.	.	.	0G	-tes	vous	.	.	.	.	.
2F	.	.	.	.	.	.	.	2a	.	.	.
1E	.	.	.	.	.	.	.	1g	-tes	vous	.
=22	=22	=22	=22	=22	=22	=22	=22	=22	=22	=22	=22
1D	aul-	ser-	.	1d	aul-	ser-	.	2f	aul-	ser-	.
.	.	.	.	.	.	.	.	2d	.	.	.
1A	.	.	.	1c	-tres	-vir	.	1e	-tres	-vir	.
2.B-	-tres	-vir	.	1d	.	.	.	2.d	.	.	.
4A	.	.	.	.	.	.	.	4c	.	.	.
=23	=23	=23	=23	=23	=23	=23	=23	=23	=23	=23	=23
1G	.	.	.	1r	.	.	.	1B-	non	m'a-	.
0F	non	m'a-	.	0D	non	m'a-	.	1A	.	.	.
.	.	.	.	.	.	.	.	2r	.	.	.
.	.	.	.	.	.	.	.	2d	pa-	-pa-	.
=24	=24	=24	=24	=24	=24	=24	=24	=24	=24	=24	=24
1G	pa-	-pa-	.	1E-Xi	pa-	-pa-	.	2B-	-reil-	-reil-	.
.	.	.	.	.	.	.	.	2c	.	.	.
2A	-reil-	-reil-	.	2D	-reil-	-reil-	.	1d	.	.	.
2.B-	.	.	.	1G	.	.	.	.	.	.	.
.	.	.	.	.	.	.	.	2e-Xi	.	.	.
4G	.	.	.	.	.	.	.	.	.	.	.
2A	.	.	.	2F	.	.	.	[2d	.	.	.
=25	=25	=25	=25	=25	=25	=25	=25	=25	=25	=25	=25
2B-	.	.	.	2G	.	.	.	2d]	.	.	.
2G	.	.	.	2B-	.	.	.	2g	.	.	.
1D	.	.	.	2A	.	.	.	2.f	.	.	.
.	.	.	.	1d	.	.	.	.	.	.	.
.	.	.	.	.	.	.	.	4g	.	.	.
2.F	.	.	.	.	.	.	.	2.a	.	.	.
.	.	.	.	2c	.	.	.	.	.	.	.
4E-Xi	.	.	.	.	.	.	.	4g	.	.	.
=26	=26	=26	=26	=26	=26	=26	=26	=26	=26	=26	=26
1C	.	.	.	1e-X	.	.	.	2g	.	.	.
.	.	.	.	.	.	.	.	2cc	.	.	.
1G	.	.	.	2d	.	.	.	2b-	.	.	.
.	.	.	.	4c	.	.	.	4a	.	.	.
.	.	.	.	4B-	.	.	.	4g	.	.	.
1D	.	.	.	1A	.	.	.	2.f#Xi	.	.	.
.	.	.	.	.	.	.	.	4e	.	.	.
=27	=27	=27	=27	=27	=27	=27	=27	=27	=27	=27	=27
0.GGl	-le.	-le.	.	0.Gl	-le.	-le.	.	0.gl	-le.	-le.	.
==	==	==	==	==	==	==	==	==	==	==	==
*-	*-	*-	*-	*-	*-	*-	*-	*-	*-	*-	*-
!!!RDF**kern: l=long note in original notation
!!!system-decoration: [(s1,s2,s3)]
!!!RDF**kern: i = editorial accidental
!!muse2ps: C^@{COM}/Du Fay?^i2I150v90,90,120c122z18l2550t130
